X:1
T:Bridget O'Malley
M:3/4
L:1/4
K:D
 A,| D3/2- E/2F/2 G/2| A F A| B AF/2-E/2| D B, B/2c/2| d c B/2c/2|\
 B A F| F F A| B2 B/2c/2| d3/2 c/2B/2 c/2| B A F| A F E/2F/2| D B, B,/2C/2|\
 D BA/2-B/2| F E3/2 F/2| D D E| D2||
